packages/astro-components-stencil/src/icons/hdr-weak.svg

<svg xmlns="http://www.w3.org/2000/svg" viewBox="0 0 24 24"><g xmlns="http://www.w3.org/2000/svg" id="hdr-weak" fill-rule="nonzero">
            <path d="M5 8c-2.21 0-4 1.79-4 4s1.79 4 4 4 4-1.79 4-4-1.79-4-4-4zm12-2c-3.31 0-6 2.69-6 6s2.69 6 6 6 6-2.69 6-6-2.69-6-6-6zm0 10c-2.21 0-4-1.79-4-4s1.79-4 4-4 4 1.79 4 4-1.79 4-4 4z"/>
        </g></svg>

<svg width="24" height="24" viewBox="0 0 24 24" fill="none" xmlns="http://www.w3.org/2000/svg">
<path fill-rule="evenodd" clip-rule="evenodd" d="M17 6C13.69 6 11 8.69 11 12C11 15.31 13.69 18 17 18C20.31 18 23 15.31 23 12C23 8.69 20.31 6 17 6ZM5 8C2.79 8 1 9.79 1 12C1 14.21 2.79 16 5 16C7.21 16 9 14.21 9 12C9 9.79 7.21 8 5 8ZM13 12C13 14.21 14.79 16 17 16C19.21 16 21 14.21 21 12C21 9.79 19.21 8 17 8C14.79 8 13 9.79 13 12Z" fill="black"/>
</svg>
